X:1
T:BWV 1009M
T:J. S. Bach
%%score { ( 1 3 ) | ( 2 4 ) }
L:1/8
M:3/4
K:B
V:1 treble nm="Harp"
V:3 treble 
V:2 treble 
V:4 treble 
V:1
 BA/G/ F/E/D/C/ B,/F,/D,/F,/ | B,,2- B,,/C,/D,/E,/ F,/G,/A,/B,/ | %2
 C/B,/A,/G,/ F,/G,/A,/B,/ C/D/E/C/ | D/E/D/C/ B,/C/D/E/ F/G/A/B/ | c/B/A/G/ F/G/A/B/ c/d/e/c/ | %5
 d/e/d/c/ B/B/A/G/ F/E/D/C/ | B,/A/B/c/ d/c/B/A/ G/B/F/B/ | ^E/D/E/F/ G/F/E/D/ C/E/B,/E/ | %8
 A,/G/A/B/ c/B/A/G/ F/A/^E/A/ | D/C/D/^E/ F/E/D/C/ B,/D/A,/D/ | G,/F/G/A/ B/A/G/F/ ^E/G/D/G/ | %11
 C/B,/C/D/ ^E/D/C/B,/ A,/C/G,/C/ | F,/C/D/^E/ F/G/A/B/ c/B/A/G/ | A/B/c/B/ A/G/F/G/ A/G/F/E/ | %14
 D/F/D/^B,/ G,/A,/B,/C/ D/E/F/D/ | E/c/G/E/ C/D/E/F/ G/A/B/G/ | A/c/A/^^F/ D/^E/F/G/ A/B/c/A/ | %17
 B/c/B/A/ G/E/D/C/ B,/A,/G,/F,/ | E,/G,/A,/^B,/ C/D/E/C/ A/^^F/G/C/ | %19
 D,/A,/C/G/ ^^F/A/D/F/ A/c/B/F/ | G/^^C/G/A/ G/C/G/A/ G/C/G/A/ | B/D/G/A/ B/D/G/A/ B/D/A/B/ | %22
 c/D/A/B/ c/D/A/B/ c/A/^^F/^E/ | D/B/G/^^F/ G/B/G/F/ G/B/G/^E/ | ^^C/B/G/^^F/ G/B/G/F/ G/B/G/E/ | %25
 C/A/^^F/^E/ F/A/=E/D/ E/A/D/C/ | B,/G,/B,/D/ B,/G,/B,/D/ G/B/G/D/ | %27
 B,/G,/B,/D/ B,/G,/B,/D/ G/B/G/E/ | C/A,/C/F/ C/A,/C/F/ A/c/A/F/ | E/A,/E/F/ E/A,/E/F/ E/c/A/F/ | %30
 D/B,/D/F/ D/B,/D/F/ =A/c/A/F/ | D/B,/D/F/ D/B,/D/F/ B/=A/G/F/ | G/E/D/E/ F/G/A/B/ c/G/E/C/ | %33
 F/D/C/D/ E/F/G/A/ B/F/D/B,/ | E/C/E/F/ E/C/E/F/ E/B,/E/F/ | E/A,/E/F/ E/G,/E/F/ E/F,/E/F/ | %36
 D/F,/B,,/F,/ D/F,/B,,/F,/ D/C/B,/A,/ | G,/D/B/D/ G,/D/B/D/ G,/F/E/D/ | %38
 E/G,/C,/G,/ E/G,/C,/G,/ E/D/C/B,/ | A,/^E/c/E/ A,/E/c/E/ A,/G/F/E/ | %40
 F/A,/D,/A,/ F/A,/D,/A,/ F/E/D/C/ | B,/F/d/F/ B,/F/d/F/ B,/=A/G/F/ | %42
 G/B,/E,/B,/ G/B,/E,/B,/ G/F/E/D/ | C/G/e/G/ C/G/e/G/ C/G/A/B/ | F,/A/e/A/ F,/A/e/A/ F,/A/e/A/ | %45
 F,/B/d/B/ F,/B/d/B/ F,/B/d/B/ | F,/B/c/B/ F,/A/c/A/ F,/G/c/G/ | F,/A/c/A/ F,/A/f/A/ F,/A/c/A/ | %48
 F,/A/B/A/ F,/G/B/G/ F,/F/B/F/ | F,/G/B/G/ F,/G/e/G/ F,/G/B/G/ | F,/G/A/G/ F,/F/A/F/ F,/E/A/E/ | %51
 F,/F/A/F/ F,/F/d/F/ F,/F/A/F/ | F,/F/G/F/ F,/E/G/E/ F,/D/G/D/ | F,/E/G/E/ F,/E/c/E/ F,/E/G/E/ | %54
 F,/E/A/E/ F,/E/c/E/ F,/E/A/E/ | F,/D/B/D/ F,/D/d/D/ F,/D/B/D/ | F,/E/A/E/ F,/E/c/E/ F,/E/A/E/ | %57
 F,/=D/B/D/ F,/D/=d/D/ F,/D/B/D/ | F,/^E/B/E/ F,/C/B/C/ F,/D/B/D/ | %59
 F,/^E/B/E/ F,/D/B/D/ F,/E/B/E/ | F,/F/A/G/ F/E/D/C/ F/D/F/C/ | F/^B,/F/G/ F/B,/F/G/ F/B,/F/G/ | %62
 E/C/G/F/ E/D/C/B,/ E/C/E/B,/ | E/A,/E/F/ E/A,/E/F/ E/A,/E/F/ | D/B,/F/E/ D/C/B,/A,/ B,/G,/B,/F,/ | %65
 B,/^E,/B,/C/ B,/E,/B,/C/ B,/E,/B,/C/ | A,/F,/A,/C/ A,/F,/A,/C/ A,/E,/A,/C/ | %67
 =A,/D,/A,/B,/ A,/D,/A,/B,/ A,/D,/A,/B,/ | G,/E,/G,/B,/ G,/E,/G,/B,/ G,/D,/G,/B,/ | %69
 A,/C,/A,/E/ A,/C,/A,/E/ A,/C,/A,/E/ | D/B,,/C,/D,/ E,/F,/G,/A,/ B,/C/D/E/ | %71
 F/D/B,/C/ D/E/F/G/ =A/G/A/F/ | G/E/C/D/ E/F/G/A/ B/A/B/G/ | A/F/D/E/ F/G/A/B/ c/B/c/A/ | %74
 B/G/E/F/ G/A/B/c/ d/c/d/B/ | A/G/A/F/ E/D/E/C/ A,/G,/A,/F,/ | A2 z2 z2 | %77
 D,/B/A/G/ F/E/D/C/ B,/F,/D,/F,/ | G2 z2 z2 | A2 z2 z2 | B2 B2 A2 | B2- B/D/B/c/ B/D/B/c/ | %82
 =A2- A/D/A/B/ A/D/A/B/ | G2- G/E/D/E/ G/E/D/G/ | A2- A/B/A/B/ A/B/A/B/ | %85
 B/4A/4B/4A/4B/4A/4B/4A/4 B/4A/4B/4A/4B/4A/4B/4A/4 B/4A/4B/4A/4B/4A/4B/4A/4 | %86
 BA/G/ F/E/D/C/ B,/F,/D,/F,/ | !fermata!B2 z2 z2 |[M:4/4][Q:1/4=96]"^Andante" z4 z2 z/ F/G/A/ | %89
 B/A/4G/4F/E/ D/F/4E/4D/C/ B,/F,/4E,/4D,/C,/ B,,/B,/C/D/ | %90
 E/D/4C/4D/F/ C/B,/4A,/4B,/F/ A,A,/4G,/4F,/ F/4E/4D/4E/4F/D/ | %91
 G,/F/B/D/ E/4D/4C/4D/4E/C/ F,/E/A/C/ D/4C/4B,/4C/4D/B,/ | %92
 E,/4G,/4A,/4B,/4C/E/ D/B,/F,/A,/ B,B,, D/4C/4B,/4A,/4B,/D/ | %93
 ^E/G/c/E/ F/A,/A,/4G,/4F,/ G3/2C/4D/4 E/4F/4G/4A/4B/G/ | A/C/4B,/4C/D/ E/G,/A,/E/ D^EFG | %95
 ABcd ^e/4B/4C/4B/4e/B/ A/4c/4d/4e/4f/A/ | G/f/^e/C/ F/4A/4B/4c/4d/F/ ^E/d/c/A,/ D/4F/4G/4A/4B/D/ | %97
 C/B/A/F,/ B,/4A,/4B,/D/A,/ B,/^E/4D/4E/B,/4A,/4 B,/F/4E/4F/B,/4A,/4 | %98
 B,/G/4F/4G/B,/ A,/4C/4D/4^E/4F/c/ B/E/4D/4E/G,/ F,/4A,/4B,/4C/4D/A/ | %99
 G/C/4B,/4C/^E,/ D,/4F,/4G,/4A,/4B,/F/ ^E/4G/4A/4B/4c/B,/ A,/F/C,/E/ | %100
 F/A/4B/4c/F/4G/4 A/F/C/^E/ F2 z/ F/G/A/ | %101
 B/A/4G/4F/E/ D/F/4E/4D/C/ B,/F,/4E,/4D,/C,/ B,,/B,/C/D/ | %102
 E/D/4C/4D/F/ C/B,/4A,/4B,/F/ A,A,/4G,/4F,/ F/4E/4D/4E/4F/D/ | %103
 G,/F/B/D/ E/4D/4C/4D/4E/C/ F,/E/A/C/ D/4C/4B,/4C/4D/B,/ | %104
 E,/4G,/4A,/4B,/4C/E/ D/B,/F,/A,/ B,B,, D/4C/4B,/4A,/4B,/D/ | %105
 ^E/G/c/E/ F/A,/A,/4G,/4F,/ G3/2C/4D/4 E/4F/4G/4A/4B/G/ | A/C/4B,/4C/D/ E/G,/A,/E/ D^EFG | %107
 ABcd ^e/4B/4C/4B/4e/B/ A/4c/4d/4e/4f/A/ | G/f/^e/C/ F/4A/4B/4c/4d/F/ ^E/d/c/A,/ D/4F/4G/4A/4B/D/ | %109
 C/B/A/F,/ B,/4A,/4B,/D/A,/ B,/^E/4D/4E/B,/4A,/4 B,/F/4E/4F/B,/4A,/4 | %110
 B,/G/4F/4G/B,/ A,/4C/4D/4^E/4F/c/ B/E/4D/4E/G,/ F,/4A,/4B,/4C/4D/A/ | %111
 G/C/4B,/4C/^E,/ D,/4F,/4G,/4A,/4B,/F/ ^E/4G/4A/4B/4c/B,/ A,/F/C,/E/ | %112
 F/A/4B/4c/F/4G/4 A/F/C/^E/ F2 z/ c/d/^e/ | f/^e/4d/4c/B/ A/c/4B/4A/G/ F/C/4B,/4A,/G,/ F,/A/B/c/ | %114
 d/4c/4B/4A/4B/G/ E/C/4D/4E/A/ =G/^E/D/C/ B,/4A,/4B,/4C/4D/B,/ | %115
 E,/G,/B,/D/ C/4B,/4C/4D/4E/C/ =G/C/D,/A/ B/4A/4^G/4A/4B/G/ | %116
 E/4D/4C/4D/4E/C/ A,/4G,/4=G,/4^G,/4A,/C/ D,3/2D/4^E/4 =G/4^G/4A/4B/4c/A/ | %117
 B/4A/4G/4=G/4^G/B,/ C/A/D/=G/ ^G3/2B/4c/4 d/G/4A/4B/D/4E/4 | %118
 F/=A/4G/4A/B,/ D,/A/A/4G/4F/ G/E/4D/4E/G/ ^B,/4C/4D/4E/4F/G,/ | %119
 C,/C/4D/4E/E/4F/4 G/A/4B/4c/B/ A/4E/4F,/4E/4A/E/ D/4F/4G/4A/4B/D/ | %120
 C/B/A/F,/ B,/4D/4E/4F/4G/B,/ A,/G/F/D,/ G,/4B,/4C/4D/4E/G,/ | %121
 F,/E/D/B,,/ E,/G/4F/4E/E/4D/4 C/B/4A/4B/A/4G/4 F/E/4D/4C/A/ | %122
 BG,/4=A/4G/4F/4 E/4D/4E/G/D/ E/^A/4G/4A/E/4D/4 E/B/4A/4B/E/4D/4 | %123
 E/c/4B/4c/E/ D/4C/4B,/4C/4D/F/ B/A/4G/4F/E/ D/B,/F,/A,/ | %124
 B,,/B/4A/4B/F/4E/4 F/D/4C/4D/B,/ B2 z/ c/d/^e/ | %125
 f/^e/4d/4c/B/ A/c/4B/4A/G/ F/C/4B,/4A,/G,/ F,/A/B/c/ | %126
 d/4c/4B/4A/4B/G/ E/C/4D/4E/A/ =G/^E/D/C/ B,/4A,/4B,/4C/4D/B,/ | %127
 E,/G,/B,/D/ C/4B,/4C/4D/4E/C/ =G/C/D,/A/ B/4A/4^G/4A/4B/G/ | %128
 E/4D/4C/4D/4E/C/ A,/4G,/4=G,/4^G,/4A,/C/ D,3/2D/4^E/4 =G/4^G/4A/4B/4c/A/ | %129
 B/4A/4G/4=G/4^G/B,/ C/A/D/=G/ ^G3/2B/4c/4 d/G/4A/4B/D/4E/4 | %130
 F/=A/4G/4A/B,/ D,/A/A/4G/4F/ G/E/4D/4E/G/ ^B,/4C/4D/4E/4F/G,/ | %131
 C,/C/4D/4E/E/4F/4 G/A/4B/4c/B/ A/4E/4F,/4E/4A/E/ D/4F/4G/4A/4B/D/ | %132
 C/B/A/F,/ B,/4D/4E/4F/4G/B,/ A,/G/F/D,/ G,/4B,/4C/4D/4E/G,/ | %133
 F,/E/D/B,,/ E,/G/4F/4E/E/4D/4 C/B/4A/4B/A/4G/4 F/E/4D/4C/A/ | %134
 BG,/4=A/4G/4F/4 E/4D/4E/G/D/ E/^A/4G/4A/E/4D/4 E/B/4A/4B/E/4D/4 | %135
 E/c/4B/4c/E/ D/4C/4B,/4C/4D/F/ B/A/4G/4F/E/ D/B,/F,/A,/ | %136
 B,,/B/4A/4B/F/4E/4 F/D/4C/4D/B,/ !fermata!B2 z2 |[M:3/4][Q:1/4=184]"^Presto" z4 z B | %138
 BF DB, F,D, | B,,B cB AB | cA FC A,F, | E,c BA GF | BA GF ED | EC F,G FE | DC B,A, B,F, | %145
 B,,3 B,/C/ D^E | A,C FG AB | ^^Fc Dc BA | BA G^^F GD | B,C DB, G,F, | ^E,G, CD ^EF | G^E CB AG | %152
 AG F^E FC | A,B, CA, F,E, | D,F GF ^EF | B,C B,A, G,F, | ^E,G AG FG | B,D CB, A,G, | F,A BA DA | %159
 G,B cB ^EB | A,c dc BA | GF ED EC | B,,E DC DB, | A,B, CD ^EF | G,C D^E FG | F,D ^EF GA | %166
 C,B GB ^EB | CB GB ^EB | C=A FA ^EA | C=A FA ^EA | =DG FG ^EG | =DG FG ^EG | BG ^EC G,^E, | %173
 C,3 C ^EG | AB cG AF | GA BF G^E | FC DB, G,^E | F,4 z B | BF DB, F,D, | B,,B cB AB | cA FC A,F, | %181
 E,c BA GF | BA GF ED | EC F,G FE | DC B,A, B,F, | B,,3 B,/C/ D^E | A,C FG AB | ^^Fc Dc BA | %188
 BA G^^F GD | B,C DB, G,F, | ^E,G, CD ^EF | G^E CB AG | AG F^E FC | A,B, CA, F,E, | D,F GF ^EF | %195
 B,C B,A, G,F, | ^E,G AG FG | B,D CB, A,G, | F,A BA DA | G,B cB ^EB | A,c dc BA | GF ED EC | %202
 B,,E DC DB, | A,B, CD ^EF | G,C D^E FG | F,D ^EF GA | C,B GB ^EB | CB GB ^EB | C=A FA ^EA | %209
 C=A FA ^EA | =DG FG ^EG | =DG FG ^EG | BG ^EC G,^E, | C,3 C ^EG | AB cG AF | GA BF G^E | %216
 FC DB, G,^E | F,4 z c | cA FC A,C | EC A,G, A,F, | B,,E DC DF | Bc dA BG | EF GD EC | A,G AB cA | %224
 ^^F^E FG AF | DA ^^FD dC | B,G DB, A,F | G,E B,G, F,D | E,C G,E, D,B, | C,B AB c^^F | B,,d cB AG | %231
 Dc BA G^^F | GD CB, CD | G,3 G/A/ B/A/B/G/ | FD B,D F=A | D,c B=A GF | GE DE B,E | G,B, E,G FG | %238
 =AG FE DF | ^B,D F,=A, G,F, | E,D, E,F, G,E, | C,E, G,C DE | ^^F,E DC B,A, | G,B, EG EC | %244
 A,G FE DC | B,D GB GE | CB AG FE | DF Bd BG | Ed cB AG | Ac AF CA, | F,E CE A,E | F,E CE A,E | %252
 F,=D B,D A,D | F,=D B,D A,D | =G,C B,C A,C | =G,C B,C A,C | EF, A,C EA | c3 B AG | FE DF EC | %259
 DC B,D CA, | B,F GE CA | B4 z c | cA FC A,C | EC A,G, A,F, | B,,E DC DF | Bc dA BG | EF GD EC | %267
 A,G AB cA | ^^F^E FG AF | DA ^^FD dC | B,G DB, A,F | G,E B,G, F,D | E,C G,E, D,B, | C,B AB c^^F | %274
 B,,d cB AG | Dc BA G^^F | GD CB, CD | G,3 G/A/ B/A/B/G/ | FD B,D F=A | D,c B=A GF | GE DE B,E | %281
 G,B, E,G FG | =AG FE DF | ^B,D F,=A, G,F, | E,D, E,F, G,E, | C,E, G,C DE | ^^F,E DC B,A, | %287
 G,B, EG EC | A,G FE DC | B,D GB GE | CB AG FE | DF Bd BG | Ed cB AG | Ac AF CA, | F,E CE A,E | %295
 F,E CE A,E | F,=D B,D A,D | F,=D B,D A,D | =G,C B,C A,C | =G,C B,C A,C | EF, A,C EA | c3 B AG | %302
 FE DF EC | DC B,D CA, | B,F GE CA | !fermata!B4 z2 |[M:3/4][Q:1/4=72]"^Adagio" B2 B>G A2 | %307
 =A2 A>F G2 | CD/E/ E>C DE | B,/A,/B,/G,/ A,C F,E, | F2 F>D ^E/C/E/G/ | B2 B>G B/A/G/F/ | %312
 G=A/B/ AG/B/ =d^E | F2 F4 | B2 B>G A2 | =A2 A>F G2 | CD/E/ E>C DE | B,/A,/B,/G,/ A,C F,E, | %318
 F2 F>D ^E/C/E/G/ | B2 B>G B/A/G/F/ | G=A/B/ AG/B/ =d^E | F2 F4 | CE/D/ E>D C/B,/A,/G,/ | %323
 CE/D/ E>D C/B,/C/A,/ | B,/D/=G/A/ ^G3/2A/4B/4 CA | G^E G/=G/E/D/ D/4C/4D/4C/4^B,/C/ | %326
 ^B,G df/e/ fd | ^B =A2 G/F/ E/D/F/^B,/ | Ce Fd G/A/c/^B/ | c2 c4 | ^E3/2F/4G/4 F/E/D/E/ F/D/E/G/ | %331
 B3/2c/4d/4 c/B/A/B/ c/A/B/d/ | cA, B,G AB | BA GA FG, | =A,D/E/ F/E/D/F/ E^A, | %335
 B,^E/F/ G/F/E/G/ F/c/F/=E/ | DB, E,C E,B,/A,/ | B,2 B4 | CE/D/ E>D C/B,/A,/G,/ | %339
 CE/D/ E>D C/B,/C/A,/ | B,/D/=G/A/ ^G3/2A/4B/4 CA | G^E G/=G/E/D/ D/4C/4D/4C/4^B,/C/ | %342
 ^B,G df/e/ fd | ^B =A2 G/F/ E/D/F/^B,/ | Ce Fd G/A/c/^B/ | c2 c4 | ^E3/2F/4G/4 F/E/D/E/ F/D/E/G/ | %347
 B3/2c/4d/4 c/B/A/B/ c/A/B/d/ | cA, B,G AB | BA GA FG, | =A,D/E/ F/E/D/F/ E^A, | %351
 B,^E/F/ G/F/E/G/ F/c/F/=E/ | DB, E,C E,B,/A,/ | B,2 !fermata!B4 | %354
[M:4/4][Q:1/4=200]"^Prestissimo" z6 DE | F2 B,A, B,2 B2 | B/4A/4B/4A/4B/4A/4B/4A/4 GA F2 CD | %357
 E2 A,G, A,2 F2 | EDCD B,2 BA | GABF ^EABD | CABB, A,C^EG | c2 AF C2 ^E2 | F2 C2 F,2 DE | %363
 F2 B,A, B,2 B2 | B/4A/4B/4A/4B/4A/4B/4A/4 GA F2 CD | E2 A,G, A,2 F2 | EDCD B,2 BA | GABF ^EABD | %368
 CABB, A,C^EG | c2 AF C2 ^E2 | F2 C2 F,2 AB | c2 AF E2 A2 | DFBc d2 B=G | G2 EG CBAG | %374
 DG=G^E D2 AD | BG=G^G ADBD | cAGA BDcC | B,dAB D2 G=G | G2 D2 G,2 GA | B2 ^ED E2 C2 | %380
 F,CBG A2 FE | DFBD CedB | cBAG F2 AB | cAFG AFCD | ECA,B, CA,F,E | DB,F,F DB,F,B | FDEC DB,F,D | %387
 CDEB, A,DEG, | F,DEE, D,F,A,C | F2 DB, F,2 A,2 | B,6 AB | c2 AF E2 A2 | DFBc d2 B=G | G2 EG CBAG | %394
 DG=G^E D2 AD | BG=G^G ADBD | cAGA BDcC | B,dAB D2 G=G | G2 D2 G,2 GA | B2 ^ED E2 C2 | %400
 F,CBG A2 FE | DFBD CedB | cBAG F2 AB | cAFG AFCD | ECA,B, CA,F,E | DB,F,F DB,F,B | FDEC DB,F,D | %407
 CDEB, A,DEG, | F,DEE, D,F,A,C | F2 DB, F,2 A,2 | B,6 Bc | =d2 cB A2 B2 | cBAG FE=DC | =DFED CEDC | %414
 B,A,B,C =DEFG | =A2 =GF E2 =D2 | C=DEF =G=ABc | =d2 cB =A=GFE | =D6 Bc | =d2 cB A2 B2 | %420
 cBAG FE=DC | =DFED CEDC | B,A,B,C =DEFG | =A2 =GF E2 =D2 | C=DEF =G=ABc | =d2 cB =A=GFE | =D6 DE | %427
 F2 FE F2 G2 | =AGAB ABcA | F=AGA BAGF | ^E2 DE C2 cB | c2 =DC D2 F2 | BABc =d2 c2 | B=AGF AGF^E | %434
 F2 C2 F,2 F=G | =A2 =GF EDEF | =A=GFE c4- | cABc =dcBd | cBAG FE=DC | =DCED FE=GF | %440
 F,G,A,B, C=DEC | E=DCB, DCB,A, | B,6 =DE | F2 FE F2 G2 | =AGAB ABcA | F=AGA BAGF | ^E2 DE C2 cB | %447
 c2 =DC D2 F2 | BABc =d2 c2 | B=AGF AGF^E | F2 C2 F,2 F=G | =A2 =GF EDEF | =A=GFE c4- | %453
 cABc =dcBd | cBAG FE=DC | =DCED FE=GF | F,G,A,B, C=DEC | E=DCB, DCB,A, | B,6 DE | F2 B,A, B,2 B2 | %460
 B/4A/4B/4A/4B/4A/4B/4A/4 GA F2 CD | E2 A,G, A,2 F2 | EDCD B,2 BA | GABF ^EABD | CABB, A,C^EG | %465
 c2 AF C2 ^E2 | F2 C2 F,2 AB | c2 AF E2 A2 | DFBc d2 B=G | G2 EG CBAG | DG=G^E D2 AD | %471
 BG=G^G ADBD | cAGA BDcC | B,dAB D2 G=G | G2 D2 G,2 GA | B2 ^ED E2 C2 | F,CBG A2 FE | DFBD CedB | %478
 cBAG F2 AB | cAFG AFCD | ECA,B, CA,F,E | DB,F,F DB,F,B | FDEC DB,F,D | CDEB, A,DEG, | %484
 F,DEE, D,F,A,C | F2 DB, F,2 A,2 | B,6 z2 |[M:3/8][Q:1/4=132]"^Allegro" z2 F | BB,/C/D/E/ | FGA | %490
 BFd | BFd | c/B/c/d/e | ABD | F,CB | AFc | c^EF | Dd/c/B/A/ | BG,/A,/B,/C/ | DG,B | BD^E | %501
 Cc/B/A/G/ | AF,/G,/A,/B,/ | CF,A | ACD | B,B/A/G/F/ | ^EG/F/E/D/ | C2 C | B,/C/A,/C/G,/C/ | %509
 A,/C/G,/C/A,/C/ | B,/C/A,/C/G,/C/ | A,/C/G,/C/F,/C/ | E/F,/D/F,/C/F,/ | D/F,/C/F,/D/F,/ | %514
 E/F,/D/F,/C/F,/ | D/F,/^E/F,/F/F,/ | ^E/F,/F/F,/G/F,/ | F/F,/G/F,/A/F,/ | G/F,/A/F,/B | C2 G | %520
 B/c/=dc | B=AG | ^efG | ^efG | B/c/=dc | B=AG | ^BcG | ^BcC | F,/A,/CD | G,/B,/D^E | %530
 A,/C/F/D/E/C/ | B,/D/G/A/B/G/ | c/G/^E/D/C/B,/ | A,/C/F/A,/G,/^E/ | FCA, | F,2 F | BB,/C/D/E/ | %537
 FGA | BFd | BFd | c/B/c/d/e | ABD | F,CB | AFc | c^EF | Dd/c/B/A/ | BG,/A,/B,/C/ | DG,B | BD^E | %549
 Cc/B/A/G/ | AF,/G,/A,/B,/ | CF,A | ACD | B,B/A/G/F/ | ^EG/F/E/D/ | C2 C | B,/C/A,/C/G,/C/ | %557
 A,/C/G,/C/A,/C/ | B,/C/A,/C/G,/C/ | A,/C/G,/C/F,/C/ | E/F,/D/F,/C/F,/ | D/F,/C/F,/D/F,/ | %562
 E/F,/D/F,/C/F,/ | D/F,/^E/F,/F/F,/ | ^E/F,/F/F,/G/F,/ | F/F,/G/F,/A/F,/ | G/F,/A/F,/B | C2 G | %568
 B/c/=dc | B=AG | ^efG | ^efG | B/c/=dc | B=AG | ^BcG | ^BcC | F,/A,/CD | G,/B,/D^E | %578
 A,/C/F/D/E/C/ | B,/D/G/A/B/G/ | c/G/^E/D/C/B,/ | A,/C/F/A,/G,/^E/ | FCA, | F,2 c/B/ | %584
 A/B/G/A/F/G/ | E/F/D/E/C/D/ | B,/F/G/A/B/c/ | dB,,d | E/G/A/B/c/B/ | C/^E/^^F/G/A/G/ | %590
 ^^F/^E/F/G/A/F/ | D2 A | BDE | Cc/B/A/G/ | AF,/G,/A,/B,/ | CF,=A | =ACD | B,B/=A/G/F/ | %598
 GE,/F,/G,/=A,/ | B,E,G | E^B,C | ^^G^^F^G | c/d/e=G | C2 e | dc/B/A/G/ | A/c/B/G/A/^^F/ | GDB, | %607
 G,2 B | B z2 | z2 B | A z2 | D/E/F/G/=A/F/ | G/F/E/D/E/c/ | B/A/G/F/B/D/ | F,/E/D/C/D/B,/ | F2 F | %616
 E/F,/D/F,/C/F,/ | D/F,/C/F,/D/F,/ | E/F,/D/F,/C/F,/ | D/F,/^E/F,/F/F,/ | ^E/G/C/G/D/G/ | %621
 ^E/G/F/G/D/G/ | ^E/B/C/B/D/B/ | ^E/B/D/B/C/B/ | A/C/G/C/A/C/ | B/C/A/C/G/C/ | A/C/c/C/e | F,2 C | %628
 E/F/=GF | E=DC | ABC | ABC | E/F/=GF | E=DC | ^EFC | ^EF/=E/D/C/ | B,/D/FG | C/E/GA | %638
 D/F/B/G/=A/F/ | G/E/C/E/D/C/ | F/C/A,/G,/F,/E,/ | D,/F,/B,/D,/C,/A,/ | B,DF | B2 c/B/ | %644
 A/B/G/A/F/G/ | E/F/D/E/C/D/ | B,/F/G/A/B/c/ | dB,,d | E/G/A/B/c/B/ | C/^E/^^F/G/A/G/ | %650
 ^^F/^E/F/G/A/F/ | D2 A | BDE | Cc/B/A/G/ | AF,/G,/A,/B,/ | CF,=A | =ACD | B,B/=A/G/F/ | %658
 GE,/F,/G,/=A,/ | B,E,G | E^B,C | ^^G^^F^G | c/d/e=G | C2 e | dc/B/A/G/ | A/c/B/G/A/^^F/ | GDB, | %667
 G,2 B | B z2 | z2 B | A z2 | D/E/F/G/=A/F/ | G/F/E/D/E/c/ | B/A/G/F/B/D/ | F,/E/D/C/D/B,/ | F2 F | %676
 E/F,/D/F,/C/F,/ | D/F,/C/F,/D/F,/ | E/F,/D/F,/C/F,/ | D/F,/^E/F,/F/F,/ | ^E/G/C/G/D/G/ | %681
 ^E/G/F/G/D/G/ | ^E/B/C/B/D/B/ | ^E/B/D/B/C/B/ | A/C/G/C/A/C/ | B/C/A/C/G/C/ | A/C/c/C/e | F,2 C | %688
 E/F/=GF | E=DC | ABC | ABC | E/F/=GF | E=DC | ^EFC | ^EF/=E/D/C/ | B,/D/FG | C/E/GA | %698
 D/F/B/G/=A/F/ | G/E/C/E/D/C/ | F/C/A,/G,/F,/E,/ | D,/F,/B,/D,/C,/A,/ | B,DF | !fermata!B2 z |] %704
V:2
 z6 | z6 | z6 | z6 | z6 | z6 | z6 | z6 | z6 | z6 | z6 | z6 | z6 | z6 | z6 | z6 | z6 | z6 | z6 | %19
 z6 | z6 | z6 | z6 | z6 | z6 | z6 | z6 | z6 | z6 | z6 | z6 | z6 | z6 | z6 | z6 | z6 | z6 | z6 | %38
 z6 | z6 | z6 | z6 | z6 | z6 | z6 | z6 | z6 | z6 | z6 | z6 | z6 | z6 | z6 | z6 | z6 | z6 | z6 | %57
 z6 | z6 | z6 | z6 | z6 | z6 | z6 | z6 | z6 | z6 | z6 | z6 | z6 | z6 | z6 | z6 | z6 | z6 | z6 | %76
 F,2 z2 z2 | z6 | F,2 z2 z2 | F,2 z2 z2 | F,2 F,4 | F,2 z2 z2 | F,2 z2 z2 | G,2 z2 z2 | %84
 =G,2 z2 z2 | D/4C/4D/4C/4D/4C/4D/4C/4 D/4C/4D/4C/4D/4C/4D/4C/4 D/4C/4D/4C/4D/4C/4D/4C/4 | z6 | %87
 !fermata!F,2 z2 z2 |[M:4/4] z4 z2 z/ z3/2 | z8 | z8 | z8 | z8 | z4 G,3/2 z/ z2 | %94
 z4 B,/B,,/C/B,,/ D/B,,/^E/F,/ | F/F,/G/F,/ A/F,/B/F,/ z4 | z8 | z8 | z8 | z8 | z4 F,2 z/ z3/2 | %101
 z8 | z8 | z8 | z8 | z4 G,3/2 z/ z2 | z4 B,/B,,/C/B,,/ D/B,,/^E/F,/ | F/F,/G/F,/ A/F,/B/F,/ z4 | %108
 z8 | z8 | z8 | z8 | z4 F,2 z/ z/ z | z8 | z8 | z8 | z8 | z4 D3/2 z/ z2 | z8 | z8 | z8 | z8 | z8 | %123
 z8 | z4 F,2 z/ z/ z | z8 | z8 | z8 | z8 | z4 D3/2 z/ z2 | z8 | z8 | z8 | z8 | z8 | z8 | %136
 z4 !fermata!F,2 z2 |[M:3/4] z4 z z | z6 | z6 | z6 | z6 | z6 | z6 | z6 | z6 | z6 | z6 | z6 | z6 | %150
 z6 | z6 | z6 | z6 | z6 | z6 | z6 | z6 | z6 | z6 | z6 | z6 | z6 | z6 | z6 | z6 | z6 | z6 | z6 | %169
 z6 | z6 | z6 | z6 | z6 | z6 | z6 | z6 | z4 z z | z6 | z6 | z6 | z6 | z6 | z6 | z6 | z6 | z6 | z6 | %188
 z6 | z6 | z6 | z6 | z6 | z6 | z6 | z6 | z6 | z6 | z6 | z6 | z6 | z6 | z6 | z6 | z6 | z6 | z6 | %207
 z6 | z6 | z6 | z6 | z6 | z6 | z6 | z6 | z6 | z6 | z4 z z | z6 | z6 | z6 | z6 | z6 | z6 | z6 | z6 | %226
 z6 | z6 | z6 | z6 | z6 | z6 | z6 | z6 | z6 | z6 | z6 | z6 | z6 | z6 | z6 | z6 | z6 | z6 | z6 | %245
 z6 | z6 | z6 | z6 | z6 | z6 | z6 | z6 | z6 | z6 | z6 | z6 | z6 | z6 | z6 | z6 | F,4 z z | z6 | %263
 z6 | z6 | z6 | z6 | z6 | z6 | z6 | z6 | z6 | z6 | z6 | z6 | z6 | z6 | z6 | z6 | z6 | z6 | z6 | %282
 z6 | z6 | z6 | z6 | z6 | z6 | z6 | z6 | z6 | z6 | z6 | z6 | z6 | z6 | z6 | z6 | z6 | z6 | z6 | %301
 z6 | z6 | z6 | z6 | F,4 z2 |[M:3/4] [B,,F,D]2 C2 z2 | [B,,F,D]2 E2 z2 | A,2 [B,,F,]2 z2 | z6 | %310
 [D,B,]2 G,2 z2 | [C,G,^E]2 [F,C]2 z2 | [^B,F] z C z z2 | z2 F,4 | [B,,F,D]2 C2 z2 | %315
 [B,,F,D]2 E2 z2 | A,2 [B,,F,]2 z2 | z6 | [D,B,]2 G,2 z2 | [C,G,^E]2 [F,C]2 z2 | [^B,F] z C z z2 | %321
 z2 F,4 | [F,A]2 [F,A]2 z2 | [=G,A]2 [G,A]2 z2 | z6 | z6 | z6 | z6 | z6 | z2 [C,G,E]4 | %330
 [B,,G,]2 z4 | [G,^E]2 z4 | z4 C2 | [F,C]2 z4 | z2 G,2 z2 | z2 A,2 z2 | z6 | z2 [B,,F,D]4 | %338
 [F,A]2 [F,A]2 z2 | [=G,A]2 [G,A]2 z2 | z6 | z6 | z6 | z6 | z6 | z2 [C,G,E]4 | [B,,G,]2 z4 | %347
 [G,^E]2 z4 | z4 C2 | [F,C]2 z4 | z2 G,2 z2 | z2 A,2 z2 | z6 | z2 !fermata![B,,F,D]4 | %354
[M:4/4] z6 z2 | z8 | [F,C]2 z2 z4 | z8 | [B,,F,] z z2 z4 | z8 | z8 | z8 | z8 | z8 | [F,C]2 z2 z4 | %365
 z8 | [B,,F,] z z2 z4 | z8 | z8 | z8 | z8 | z8 | z8 | z8 | z8 | z8 | z8 | z8 | z8 | z8 | z8 | z8 | %382
 z8 | z8 | z8 | z8 | z8 | z8 | z8 | z8 | B,,6 z2 | z8 | z8 | z8 | z8 | z8 | z8 | z8 | z8 | z8 | %400
 z8 | z8 | z8 | z8 | z8 | z8 | z8 | z8 | z8 | z8 | B,,6 z2 | z8 | z8 | z8 | z8 | z8 | z8 | z8 | %418
 z8 | z8 | z8 | z8 | z8 | z8 | z8 | z8 | z6 z2 | z8 | z8 | z8 | z8 | z8 | z8 | z8 | z8 | z8 | z8 | %437
 z8 | z8 | z8 | z8 | z8 | B,,6 z2 | z8 | z8 | z8 | z8 | z8 | z8 | z8 | z8 | z8 | z8 | z8 | z8 | %455
 z8 | z8 | z8 | B,,6 z2 | z8 | [F,C]2 z2 z4 | z8 | [B,,F,] z z2 z4 | z8 | z8 | z8 | z8 | z8 | z8 | %469
 z8 | z8 | z8 | z8 | z8 | z8 | z8 | z8 | z8 | z8 | z8 | z8 | z8 | z8 | z8 | z8 | z8 | B,,6 z2 | %487
[M:3/8] z2 z | z3 | z3 | z3 | z3 | z3 | z3 | z3 | z3 | z3 | z3 | z3 | z3 | z3 | z3 | z3 | z3 | z3 | %505
 z3 | z3 | z3 | z3 | z3 | z3 | z3 | z3 | z3 | z3 | z3 | z3 | z3 | z3 | z3 | CCC | CCC | C2 C | %523
 C2 C | CCC | CCC | C2 C | C2 z | z3 | z3 | z3 | z3 | z3 | z3 | z3 | z2 z | z3 | z3 | z3 | z3 | %540
 z3 | z3 | z3 | z3 | z3 | z3 | z3 | z3 | z3 | z3 | z3 | z3 | z3 | z3 | z3 | z3 | z3 | z3 | z3 | %559
 z3 | z3 | z3 | z3 | z3 | z3 | z3 | z3 | z3 | CCC | CCC | C2 C | C2 C | CCC | CCC | C2 C | C2 z | %576
 z3 | z3 | z3 | z3 | z3 | z3 | z3 | z2 z | z3 | z3 | z3 | z3 | z3 | z3 | z3 | z3 | z3 | z3 | z3 | %595
 z3 | z3 | z3 | z3 | z3 | z3 | z3 | z3 | z3 | z3 | z3 | z3 | z3 | ^E/D/EC | C,/G,/C^E | F/^E/FC | %611
 z3 | z3 | z3 | z3 | z3 | z3 | z3 | z3 | z3 | F, z2 | z3 | F, z2 | z3 | z3 | z3 | z3 | z3 | %628
 F,F,F, | F,F,F, | F,2 F, | F,2 F, | F,F,F, | F,F,F, | F,2 F, | F, z2 | z3 | z3 | z3 | z3 | z3 | %641
 z3 | z3 | F,2 z | z3 | z3 | z3 | z3 | z3 | z3 | z3 | z3 | z3 | z3 | z3 | z3 | z3 | z3 | z3 | z3 | %660
 z3 | z3 | z3 | z3 | z3 | z3 | z3 | z3 | ^E/D/EC | C,/G,/C^E | F/^E/FC | z3 | z3 | z3 | z3 | z3 | %676
 z3 | z3 | z3 | z3 | F, z2 | z3 | F, z2 | z3 | z3 | z3 | z3 | z3 | F,F,F, | F,F,F, | F,2 F, | %691
 F,2 F, | F,F,F, | F,F,F, | F,2 F, | F, z2 | z3 | z3 | z3 | z3 | z3 | z3 | z3 | !fermata!F,2 z |] %704
V:3
 x6 | x6 | x6 | x6 | x6 | x6 | x6 | x6 | x6 | x6 | x6 | x6 | x6 | x6 | x6 | x6 | x6 | x6 | x6 | %19
 x6 | x6 | x6 | x6 | x6 | x6 | x6 | x6 | x6 | x6 | x6 | x6 | x6 | x6 | x6 | x6 | x6 | x6 | x6 | %38
 x6 | x6 | x6 | x6 | x6 | x6 | x6 | x6 | x6 | x6 | x6 | x6 | x6 | x6 | x6 | x6 | x6 | x6 | x6 | %57
 x6 | x6 | x6 | x6 | x6 | x6 | x6 | x6 | x6 | x6 | x6 | x6 | x6 | x6 | x6 | x6 | x6 | x6 | x6 | %76
 C2 z2 z2 | x6 | F2 z2 z2 | E2 z2 z2 | D2 C4 | D2 z4 | D2 z4 | D2 z4 | C2- C/D/C/D/ C/D/C/D/ | x6 | %86
 x6 | D2 z2 z2 |[M:4/4] x8 | x8 | x8 | x8 | x8 | z4 C3/2 z/ z2 | x8 | x8 | x8 | x8 | x8 | x8 | x8 | %101
 x8 | x8 | x8 | x8 | z4 C3/2 z/ z2 | x8 | x8 | x8 | x8 | x8 | x8 | x8 | x8 | x8 | x8 | x8 | x8 | %118
 x8 | x8 | x8 | x8 | x8 | x8 | z4 D2 z2 | x8 | x8 | x8 | x8 | x8 | x8 | x8 | x8 | x8 | x8 | x8 | %136
 z4 D2 x2 |[M:3/4] x6 | x6 | x6 | x6 | x6 | x6 | x6 | x6 | x6 | x6 | x6 | x6 | x6 | x6 | x6 | x6 | %153
 x6 | x6 | x6 | x6 | x6 | x6 | x6 | x6 | x6 | x6 | x6 | x6 | x6 | x6 | x6 | x6 | x6 | x6 | x6 | %172
 x6 | x6 | x6 | x6 | x6 | x6 | x6 | x6 | x6 | x6 | x6 | x6 | x6 | x6 | x6 | x6 | x6 | x6 | x6 | %191
 x6 | x6 | x6 | x6 | x6 | x6 | x6 | x6 | x6 | x6 | x6 | x6 | x6 | x6 | x6 | x6 | x6 | x6 | x6 | %210
 x6 | x6 | x6 | x6 | x6 | x6 | x6 | x6 | x6 | x6 | x6 | x6 | x6 | x6 | x6 | x6 | x6 | x6 | x6 | %229
 x6 | x6 | x6 | x6 | x6 | x6 | x6 | x6 | x6 | x6 | x6 | x6 | x6 | x6 | x6 | x6 | x6 | x6 | x6 | %248
 x6 | x6 | x6 | x6 | x6 | x6 | x6 | x6 | x6 | x6 | x6 | x6 | x6 | D4 z z | x6 | x6 | x6 | x6 | x6 | %267
 x6 | x6 | x6 | x6 | x6 | x6 | x6 | x6 | x6 | x6 | x6 | x6 | x6 | x6 | x6 | x6 | x6 | x6 | x6 | %286
 x6 | x6 | x6 | x6 | x6 | x6 | x6 | x6 | x6 | x6 | x6 | x6 | x6 | x6 | x6 | x6 | x6 | x6 | x6 | %305
 D4 x2 |[M:3/4] x6 | x6 | x6 | x6 | x6 | x6 | x6 | x6 | x6 | x6 | x6 | x6 | x6 | x6 | x6 | x6 | %322
 x6 | x6 | x6 | x6 | x6 | x6 | x6 | x6 | x6 | x6 | x6 | x6 | x6 | x6 | x6 | x6 | x6 | x6 | x6 | %341
 x6 | x6 | x6 | x6 | x6 | x6 | x6 | x6 | x6 | x6 | x6 | x6 | x6 |[M:4/4] x8 | x8 | x8 | x8 | x8 | %359
 x8 | x8 | x8 | x8 | x8 | x8 | x8 | x8 | x8 | x8 | x8 | x8 | x8 | x8 | x8 | x8 | x8 | x8 | x8 | %378
 x8 | x8 | x8 | x8 | x8 | x8 | x8 | x8 | x8 | x8 | x8 | x8 | x8 | x8 | x8 | x8 | x8 | x8 | x8 | %397
 x8 | x8 | x8 | x8 | x8 | x8 | x8 | x8 | x8 | x8 | x8 | x8 | x8 | x8 | x8 | x8 | x8 | x8 | x8 | %416
 x8 | x8 | x8 | x8 | x8 | x8 | x8 | x8 | x8 | x8 | x8 | x8 | x8 | x8 | x8 | x8 | x8 | x8 | x8 | %435
 x8 | x8 | x8 | x8 | x8 | x8 | x8 | x8 | x8 | x8 | x8 | x8 | x8 | x8 | x8 | x8 | x8 | x8 | x8 | %454
 x8 | x8 | x8 | x8 | x8 | x8 | x8 | x8 | x8 | x8 | x8 | x8 | x8 | x8 | x8 | x8 | x8 | x8 | x8 | %473
 x8 | x8 | x8 | x8 | x8 | x8 | x8 | x8 | x8 | x8 | x8 | x8 | x8 | x8 |[M:3/8] x3 | x3 | x3 | x3 | %491
 x3 | x3 | x3 | x3 | x3 | x3 | x3 | x3 | x3 | x3 | x3 | x3 | x3 | x3 | x3 | x3 | x3 | x3 | x3 | %510
 x3 | x3 | x3 | x3 | x3 | x3 | x3 | x3 | x3 | x3 | x3 | x3 | x3 | x3 | x3 | x3 | x3 | x3 | x3 | %529
 x3 | x3 | x3 | x3 | x3 | x3 | x3 | x3 | x3 | x3 | x3 | x3 | x3 | x3 | x3 | x3 | x3 | x3 | x3 | %548
 x3 | x3 | x3 | x3 | x3 | x3 | x3 | x3 | x3 | x3 | x3 | x3 | x3 | x3 | x3 | x3 | x3 | x3 | x3 | %567
 x3 | x3 | x3 | x3 | x3 | x3 | x3 | x3 | x3 | x3 | x3 | x3 | x3 | x3 | x3 | x3 | x3 | x3 | x3 | %586
 x3 | x3 | x3 | x3 | x3 | x3 | x3 | x3 | x3 | x3 | x3 | x3 | x3 | x3 | x3 | x3 | x3 | x3 | x3 | %605
 x3 | x3 | x3 | x3 | x3 | x3 | x3 | x3 | x3 | x3 | x3 | x3 | x3 | x3 | x3 | x3 | x3 | x3 | x3 | %624
 x3 | x3 | x3 | x3 | x3 | x3 | x3 | x3 | x3 | x3 | x3 | x3 | x3 | x3 | x3 | x3 | x3 | x3 | x3 | %643
 x3 | x3 | x3 | x3 | x3 | x3 | x3 | x3 | x3 | x3 | x3 | x3 | x3 | x3 | x3 | x3 | x3 | x3 | x3 | %662
 x3 | x3 | x3 | x3 | x3 | x3 | x3 | x3 | x3 | x3 | x3 | x3 | x3 | x3 | x3 | x3 | x3 | x3 | x3 | %681
 x3 | x3 | x3 | x3 | x3 | x3 | x3 | x3 | x3 | x3 | x3 | x3 | x3 | x3 | x3 | x3 | x3 | x3 | x3 | %700
 x3 | x3 | x3 | x3 |] %704
V:4
 x6 | x6 | x6 | x6 | x6 | x6 | x6 | x6 | x6 | x6 | x6 | x6 | x6 | x6 | x6 | x6 | x6 | x6 | x6 | %19
 x6 | x6 | x6 | x6 | x6 | x6 | x6 | x6 | x6 | x6 | x6 | x6 | x6 | x6 | x6 | x6 | x6 | x6 | x6 | %38
 x6 | x6 | x6 | x6 | x6 | x6 | x6 | x6 | x6 | x6 | x6 | x6 | x6 | x6 | x6 | x6 | x6 | x6 | x6 | %57
 x6 | x6 | x6 | x6 | x6 | x6 | x6 | x6 | x6 | x6 | x6 | x6 | x6 | x6 | x6 | x6 | x6 | x6 | x6 | %76
 E,2 z2 z2 | x6 | =D,2 z2 z2 | C,2 z2 z2 | C,2 z2 z2 | B,,2 z2 z2 | B,,2 z2 z2 | B,,2 z2 z2 | %84
 B,,2 z2 z2 | x6 | x6 | B,,2 z2 z2 |[M:4/4] x8 | x8 | x8 | x8 | x8 | z4 ^E,3/2 z/ z2 | x8 | x8 | %96
 x8 | x8 | x8 | x8 | x8 | x8 | x8 | x8 | x8 | z4 ^E,3/2 z/ z2 | x8 | x8 | x8 | x8 | x8 | x8 | x8 | %113
 x8 | x8 | x8 | x8 | z4 G,3/2 z/ z2 | x8 | x8 | x8 | x8 | x8 | x8 | z4 B,,2 z/ z/ z | x8 | x8 | %127
 x8 | x8 | z4 G,3/2 z/ z2 | x8 | x8 | x8 | x8 | x8 | x8 | z4 B,,2 x2 |[M:3/4] x6 | x6 | x6 | x6 | %141
 x6 | x6 | x6 | x6 | x6 | x6 | x6 | x6 | x6 | x6 | x6 | x6 | x6 | x6 | x6 | x6 | x6 | x6 | x6 | %160
 x6 | x6 | x6 | x6 | x6 | x6 | x6 | x6 | x6 | x6 | x6 | x6 | x6 | x6 | x6 | x6 | x6 | x6 | x6 | %179
 x6 | x6 | x6 | x6 | x6 | x6 | x6 | x6 | x6 | x6 | x6 | x6 | x6 | x6 | x6 | x6 | x6 | x6 | x6 | %198
 x6 | x6 | x6 | x6 | x6 | x6 | x6 | x6 | x6 | x6 | x6 | x6 | x6 | x6 | x6 | x6 | x6 | x6 | x6 | %217
 x6 | x6 | x6 | x6 | x6 | x6 | x6 | x6 | x6 | x6 | x6 | x6 | x6 | x6 | x6 | x6 | x6 | x6 | x6 | %236
 x6 | x6 | x6 | x6 | x6 | x6 | x6 | x6 | x6 | x6 | x6 | x6 | x6 | x6 | x6 | x6 | x6 | x6 | x6 | %255
 x6 | x6 | x6 | x6 | x6 | x6 | B,,4 z z | x6 | x6 | x6 | x6 | x6 | x6 | x6 | x6 | x6 | x6 | x6 | %273
 x6 | x6 | x6 | x6 | x6 | x6 | x6 | x6 | x6 | x6 | x6 | x6 | x6 | x6 | x6 | x6 | x6 | x6 | x6 | %292
 x6 | x6 | x6 | x6 | x6 | x6 | x6 | x6 | x6 | x6 | x6 | x6 | x6 | !fermata!B,,4 x2 |[M:3/4] x6 | %307
 x6 | x6 | x6 | x6 | x6 | x6 | x6 | x6 | x6 | x6 | x6 | x6 | x6 | x6 | x6 | x6 | x6 | x6 | x6 | %326
 x6 | x6 | x6 | x6 | x6 | x6 | x6 | x6 | x6 | x6 | x6 | x6 | x6 | x6 | x6 | x6 | x6 | x6 | x6 | %345
 x6 | x6 | x6 | x6 | x6 | x6 | x6 | x6 | x6 |[M:4/4] x8 | x8 | x8 | x8 | x8 | x8 | x8 | x8 | x8 | %363
 x8 | x8 | x8 | x8 | x8 | x8 | x8 | x8 | x8 | x8 | x8 | x8 | x8 | x8 | x8 | x8 | x8 | x8 | x8 | %382
 x8 | x8 | x8 | x8 | x8 | x8 | x8 | x8 | x8 | x8 | x8 | x8 | x8 | x8 | x8 | x8 | x8 | x8 | x8 | %401
 x8 | x8 | x8 | x8 | x8 | x8 | x8 | x8 | x8 | x8 | x8 | x8 | x8 | x8 | x8 | x8 | x8 | x8 | x8 | %420
 x8 | x8 | x8 | x8 | x8 | x8 | x8 | x8 | x8 | x8 | x8 | x8 | x8 | x8 | x8 | x8 | x8 | x8 | x8 | %439
 x8 | x8 | x8 | x8 | x8 | x8 | x8 | x8 | x8 | x8 | x8 | x8 | x8 | x8 | x8 | x8 | x8 | x8 | x8 | %458
 x8 | x8 | x8 | x8 | x8 | x8 | x8 | x8 | x8 | x8 | x8 | x8 | x8 | x8 | x8 | x8 | x8 | x8 | x8 | %477
 x8 | x8 | x8 | x8 | x8 | x8 | x8 | x8 | x8 | x8 |[M:3/8] x3 | x3 | x3 | x3 | x3 | x3 | x3 | x3 | %495
 x3 | x3 | x3 | x3 | x3 | x3 | x3 | x3 | x3 | x3 | x3 | x3 | x3 | x3 | x3 | x3 | x3 | x3 | x3 | %514
 x3 | x3 | x3 | x3 | x3 | x3 | x3 | x3 | x3 | x3 | x3 | x3 | x3 | x3 | x3 | x3 | x3 | x3 | x3 | %533
 x3 | x3 | x3 | x3 | x3 | x3 | x3 | x3 | x3 | x3 | x3 | x3 | x3 | x3 | x3 | x3 | x3 | x3 | x3 | %552
 x3 | x3 | x3 | x3 | x3 | x3 | x3 | x3 | x3 | x3 | x3 | x3 | x3 | x3 | x3 | x3 | x3 | x3 | x3 | %571
 x3 | x3 | x3 | x3 | x3 | x3 | x3 | x3 | x3 | x3 | x3 | x3 | x3 | x3 | x3 | x3 | x3 | x3 | x3 | %590
 x3 | x3 | x3 | x3 | x3 | x3 | x3 | x3 | x3 | x3 | x3 | x3 | x3 | x3 | x3 | x3 | x3 | x3 | x3 | %609
 x3 | x3 | x3 | x3 | x3 | x3 | x3 | x3 | x3 | x3 | x3 | x3 | x3 | x3 | x3 | x3 | x3 | x3 | x3 | %628
 x3 | x3 | x3 | x3 | x3 | x3 | x3 | x3 | x3 | x3 | x3 | x3 | x3 | x3 | x3 | x3 | x3 | x3 | x3 | %647
 x3 | x3 | x3 | x3 | x3 | x3 | x3 | x3 | x3 | x3 | x3 | x3 | x3 | x3 | x3 | x3 | x3 | x3 | x3 | %666
 x3 | x3 | x3 | x3 | x3 | x3 | x3 | x3 | x3 | x3 | x3 | x3 | x3 | x3 | x3 | x3 | x3 | x3 | x3 | %685
 x3 | x3 | x3 | x3 | x3 | x3 | x3 | x3 | x3 | x3 | x3 | x3 | x3 | x3 | x3 | x3 | x3 | x3 | x3 |] %704

